assets/Woman getting haircut/Light/Flat/woman_getting_haircut_flat_light.svg

<svg width="32" height="32" viewBox="0 0 32 32" fill="none" xmlns="http://www.w3.org/2000/svg">
<path d="M22.3099 13.76C22.3099 14.29 22.1899 14.8 21.9699 15.25C21.8999 15.4 21.8999 15.57 21.9699 15.73C22.1899 16.18 22.3099 16.67 22.3099 17.2C22.3099 19.05 20.8099 20.55 18.9599 20.55H10.0199C8.16992 20.55 6.66992 19.05 6.66992 17.2C6.66992 16.67 6.78992 16.17 7.00992 15.73C7.01762 15.7135 7.02447 15.6967 7.03048 15.6795L7.01991 15.68C7.06991 15.54 7.06991 15.39 6.99991 15.25C6.77991 14.8 6.65991 14.29 6.65991 13.76C6.65991 13.06 6.86991 12.4 7.22991 11.86C7.58991 11.31 7.77991 10.67 7.77991 10.01V10C7.77991 8.64046 8.60711 7.3779 9.86939 6.84572C10.2835 6.66831 10.7399 6.57001 11.2199 6.57001C11.4099 6.57001 11.5799 6.48001 11.7099 6.33001C12.3299 5.46001 13.3499 4.89001 14.4999 4.89001C15.6499 4.89001 16.6699 5.46001 17.2899 6.33001C17.3999 6.48001 17.5699 6.57001 17.7599 6.57001C19.6499 6.57001 21.1899 8.10001 21.1899 10V10.01C21.1899 10.67 21.3799 11.31 21.7399 11.86C22.0999 12.41 22.3099 13.06 22.3099 13.76Z" fill="#212121"/>
<path d="M24.9299 3L23.5291 7.84087L23.6836 8.89844L23.9219 9.01172L24.708 8.17998L25.8399 4.25C25.9899 3.75 25.6999 3.22 25.1899 3.08L24.9299 3Z" fill="#D3D3D3"/>
<path d="M3 30C3 24.201 7.70101 19.5 13.5 19.5H15.5C21.299 19.5 26 24.201 26 30H3Z" fill="#8B62BF"/>
<path d="M14.4199 22.5C13.1899 22.5 12.1899 21.5 12.1899 20.27V18.8H16.6599V20.27C16.6499 21.5 15.6499 22.5 14.4199 22.5Z" fill="#F4C6AD"/>
<path d="M11.46 13.82C11.46 14.7809 10.681 15.56 9.71998 15.56C8.759 15.56 7.97998 14.7809 7.97998 13.82C7.97998 12.859 8.759 12.08 9.71998 12.08C10.681 12.08 11.46 12.859 11.46 13.82Z" fill="#F4C6AD"/>
<path d="M21.0542 13.82C21.0542 14.7809 20.2752 15.56 19.3142 15.56C18.3532 15.56 17.5742 14.7809 17.5742 13.82C17.5742 12.859 18.3532 12.08 19.3142 12.08C20.2752 12.08 21.0542 12.859 21.0542 13.82Z" fill="#F4C6AD"/>
<path d="M14.4799 19.9801C11.7399 19.9801 9.48993 18.0201 9.36993 15.1001L9.24993 12.1301L9.23993 11.8201C9.24993 10.8301 9.81993 10.4401 10.0699 10.3201C10.0999 10.3101 10.1399 10.2901 10.1799 10.2801C10.7299 10.0301 11.1799 9.59007 11.4099 9.01007L11.4899 8.82007C11.5699 8.62007 11.8399 8.59007 11.9699 8.77007C12.7099 9.85007 13.9399 10.5001 15.2499 10.5001H18.5599C18.7499 10.5001 19.7199 10.6001 19.7299 11.9801L19.5999 15.1001C19.4699 18.0301 17.2199 19.9801 14.4799 19.9801Z" fill="#FFD7C2"/>
<path d="M14.4801 16.85C13.9401 16.85 13.4301 16.72 13.0001 16.5C12.8501 16.42 12.7001 16.59 12.7901 16.73C13.1501 17.28 13.7701 17.65 14.4801 17.65C15.1901 17.65 15.8101 17.28 16.1701 16.73C16.2601 16.59 16.1001 16.43 15.9601 16.5C15.5301 16.72 15.0301 16.85 14.4801 16.85Z" fill="#990838"/>
<path d="M14.0999 13.4801L13.5699 15.1901C13.4599 15.5401 13.7199 15.8901 14.0899 15.8901H14.8699C15.2399 15.8901 15.4999 15.5401 15.3899 15.1901L14.8599 13.4801C14.7499 13.1001 14.2199 13.1001 14.0999 13.4801Z" fill="#E5AF93"/>
<path d="M11.78 12.4C12.36 12.4 12.84 12.81 13.14 13.26C12.8665 13.3448 12.5988 13.4221 12.3332 13.4989C11.9093 13.6214 11.4903 13.7425 11.06 13.89L10.56 13.44C10.36 13.25 10.37 12.92 10.6 12.76C10.93 12.53 11.37 12.4 11.78 12.4Z" fill="black"/>
<path d="M17.2201 12.4C16.6401 12.4 16.1601 12.81 15.8601 13.26C16.1337 13.3448 16.4013 13.4221 16.667 13.4989C17.0908 13.6214 17.5098 13.7425 17.9401 13.89L18.4401 13.44C18.6401 13.25 18.6301 12.92 18.4001 12.76C18.0701 12.53 17.6301 12.4 17.2201 12.4Z" fill="black"/>
<path d="M10.55 13.61C10.71 12.98 11.28 12.51 11.96 12.51C12.67 12.51 13.26 13.01 13.39 13.68C13.42 13.83 13.3 13.96 13.15 13.96H10.83C10.64 13.96 10.51 13.79 10.55 13.61Z" fill="white"/>
<path d="M18.4501 13.61C18.2901 12.98 17.7201 12.51 17.0401 12.51C16.3301 12.51 15.7401 13.01 15.6101 13.68C15.5801 13.83 15.7001 13.96 15.8501 13.96H18.1701C18.3601 13.96 18.4901 13.79 18.4501 13.61Z" fill="white"/>
<path d="M11.25 13.71C11.25 13.2 11.67 12.78 12.18 12.78C12.69 12.78 13.1 13.2 13.1 13.71C13.1 13.8 13.09 13.88 13.07 13.96H11.28C11.26 13.88 11.25 13.8 11.25 13.71Z" fill="#7D4533"/>
<path d="M17.7601 13.71C17.7601 13.2 17.3401 12.78 16.8301 12.78C16.3101 12.78 15.9001 13.2 15.9101 13.71C15.9101 13.8 15.9201 13.88 15.9401 13.96H17.7301C17.7501 13.88 17.7601 13.8 17.7601 13.71Z" fill="#7D4533"/>
<path d="M12.1799 13.1799C12.4699 13.1799 12.7099 13.4199 12.7099 13.7099C12.7099 13.7999 12.6799 13.8799 12.6499 13.9599L11.7099 13.9599C11.6699 13.8799 11.6499 13.7999 11.6499 13.7099C11.6499 13.4199 11.8899 13.1799 12.1799 13.1799Z" fill="black"/>
<path d="M16.82 13.1799C16.53 13.1799 16.29 13.4199 16.29 13.7099C16.29 13.7999 16.32 13.8799 16.35 13.9599H17.29C17.33 13.8799 17.35 13.7999 17.35 13.7099C17.35 13.4199 17.11 13.1799 16.82 13.1799Z" fill="black"/>
<path d="M12.0299 13.3499C12.0299 13.4438 11.9538 13.5199 11.8599 13.5199C11.7661 13.5199 11.6899 13.4438 11.6899 13.3499C11.6899 13.256 11.7661 13.1799 11.8599 13.1799C11.9538 13.1799 12.0299 13.256 12.0299 13.3499Z" fill="white"/>
<path d="M16.6801 13.3499C16.6801 13.4438 16.604 13.5199 16.5101 13.5199C16.4162 13.5199 16.3401 13.4438 16.3401 13.3499C16.3401 13.256 16.4162 13.1799 16.5101 13.1799C16.604 13.1799 16.6801 13.256 16.6801 13.3499Z" fill="white"/>
<path d="M17.9107 11.9034C17.9593 11.9404 18.0187 11.9604 18.0797 11.9604C18.1381 11.9608 18.1951 11.9428 18.2428 11.9091C18.2904 11.8753 18.3263 11.8274 18.3453 11.7722C18.3643 11.717 18.3654 11.6572 18.3487 11.6013C18.3319 11.5453 18.298 11.4961 18.2517 11.4604C17.675 11.062 16.9706 10.8924 16.2757 10.9844C16.2393 10.9888 16.2041 11.0003 16.1721 11.0183C16.1401 11.0363 16.112 11.0604 16.0895 11.0893C16.0669 11.1182 16.0502 11.1513 16.0405 11.1867C16.0307 11.2221 16.0281 11.259 16.0327 11.2954C16.0365 11.3321 16.0477 11.3677 16.0655 11.3999C16.0833 11.4322 16.1075 11.4606 16.1365 11.4834C16.1655 11.5061 16.1988 11.5228 16.2344 11.5325C16.27 11.5421 16.3072 11.5445 16.3437 11.5394C16.8927 11.4704 17.4484 11.5994 17.9107 11.9034Z" fill="#212121"/>
<path d="M10.6377 11.9091C10.6853 11.9428 10.7423 11.9608 10.8007 11.9604C10.8618 11.9604 10.9211 11.9403 10.9697 11.9034C11.4305 11.5967 11.9869 11.4674 12.5357 11.5394C12.6073 11.5447 12.6782 11.5222 12.7337 11.4766C12.7892 11.4311 12.8251 11.366 12.8339 11.2947C12.8428 11.2235 12.8239 11.1516 12.7813 11.0938C12.7386 11.0361 12.6754 10.9969 12.6047 10.9844C11.91 10.8957 11.2069 11.0651 10.6287 11.4604C10.5825 11.4961 10.5486 11.5453 10.5318 11.6013C10.515 11.6572 10.5162 11.717 10.5352 11.7722C10.5542 11.8274 10.59 11.8753 10.6377 11.9091Z" fill="#212121"/>
<path d="M21.05 9.02997C22 8.63997 24.32 6.87997 24.32 5.43997C24.32 5.07997 23.87 4.91997 23.65 5.20997C23.13 5.87997 20.79 7.55997 19 6.92997" fill="#212121"/>
<path d="M20.2 5.60999L25.0399 7.01059L25.8789 7.69922L25.793 8.15234L24.705 8.18478L20.8 7.05999C20.3 6.90999 19.98 6.35999 20.13 5.85999L20.2 5.60999Z" fill="#D3D3D3"/>
<path d="M24.29 7.72C24.4557 7.72 24.59 7.58568 24.59 7.42C24.59 7.25431 24.4557 7.12 24.29 7.12C24.1243 7.12 23.99 7.25431 23.99 7.42C23.99 7.58568 24.1243 7.72 24.29 7.72Z" fill="#9B9B9B"/>
<path d="M25.0465 7.0046L24.7073 8.18217L25.3298 8.36993C25.3398 8.62993 25.4098 8.89993 25.5498 9.14993C26.0398 10.0399 27.1598 10.3599 28.0498 9.86993C28.9398 9.37993 29.2598 8.25993 28.7698 7.36993C28.2798 6.47993 27.1598 6.14993 26.2698 6.63993C26.0198 6.77993 25.8198 6.95993 25.6698 7.17993L25.0465 7.0046ZM26.7498 7.50993C27.1598 7.27993 27.6798 7.42993 27.9098 7.84993C28.1398 8.25993 27.9898 8.77993 27.5698 9.00993C27.1598 9.23993 26.6398 9.08993 26.4098 8.66993C26.1798 8.25993 26.3398 7.73993 26.7498 7.50993Z" fill="#F8312F"/>
<path d="M23.34 8.47992L23.5249 7.84482L24.7033 8.18422L24.52 8.82992C24.74 8.97992 24.92 9.17992 25.06 9.42992C25.55 10.3199 25.23 11.4399 24.34 11.9299C23.45 12.4199 22.33 12.0899 21.84 11.1999C21.35 10.3099 21.67 9.18992 22.56 8.69992C22.81 8.55992 23.08 8.48992 23.34 8.47992ZM24.21 9.88992C23.98 9.46992 23.46 9.31992 23.05 9.54992C22.63 9.77992 22.48 10.2999 22.71 10.7099C22.94 11.1299 23.46 11.2799 23.87 11.0499C24.29 10.8199 24.44 10.2999 24.21 9.88992Z" fill="#F8312F"/>
</svg>

<svg xmlns="http://www.w3.org/2000/svg" width="32" height="32" fill="none"><path fill="#212121" d="M22.31 13.76c0 .53-.12 1.04-.34 1.49-.07.15-.07.32 0 .48a3.35 3.35 0 0 1-3.01 4.82h-8.94a3.35 3.35 0 0 1-3.01-4.82.542.542 0 0 0 .02-.05h-.01c.05-.14.05-.29-.02-.43-.22-.45-.34-.96-.34-1.49 0-.7.21-1.36.57-1.9.36-.55.55-1.19.55-1.85V10a3.445 3.445 0 0 1 3.44-3.43c.19 0 .36-.09.49-.24a3.423 3.423 0 0 1 5.58 0c.11.15.28.24.47.24A3.43 3.43 0 0 1 21.19 10v.01c0 .66.19 1.3.55 1.85.36.55.57 1.2.57 1.9Z"/><path fill="#D3D3D3" d="m24.93 3-1.4 4.84.154 1.058.238.114.786-.832 1.132-3.93a.935.935 0 0 0-.65-1.17L24.93 3Z"/><path fill="#8B62BF" d="M3 30c0-5.799 4.701-10.5 10.5-10.5h2C21.299 19.5 26 24.201 26 30H3Z"/><path fill="#F4C6AD" d="M14.42 22.5c-1.23 0-2.23-1-2.23-2.23V18.8h4.47v1.47a2.247 2.247 0 0 1-2.24 2.23ZM11.46 13.82a1.74 1.74 0 1 1-3.48 0 1.74 1.74 0 0 1 3.48 0ZM21.054 13.82a1.74 1.74 0 1 1-3.48 0 1.74 1.74 0 0 1 3.48 0Z"/><path fill="#FFD7C2" d="M14.48 19.98c-2.74 0-4.99-1.96-5.11-4.88l-.12-2.97-.01-.31c.01-.99.58-1.38.83-1.5.03-.01.07-.03.11-.04.55-.25 1-.69 1.23-1.27l.08-.19c.08-.2.35-.23.48-.05a3.983 3.983 0 0 0 3.28 1.73h3.31c.19 0 1.16.1 1.17 1.48l-.13 3.12c-.13 2.93-2.38 4.88-5.12 4.88Z"/><path fill="#990838" d="M14.48 16.85c-.54 0-1.05-.13-1.48-.35-.15-.08-.3.09-.21.23.36.55.98.92 1.69.92s1.33-.37 1.69-.92c.09-.14-.07-.3-.21-.23-.43.22-.93.35-1.48.35Z"/><path fill="#E5AF93" d="m14.1 13.48-.53 1.71c-.11.35.15.7.52.7h.78c.37 0 .63-.35.52-.7l-.53-1.71c-.11-.38-.64-.38-.76 0Z"/><path fill="#000" d="M11.78 12.4c.58 0 1.06.41 1.36.86-.274.085-.541.162-.807.239-.424.122-.843.243-1.273.391l-.5-.45a.44.44 0 0 1 .04-.68c.33-.23.77-.36 1.18-.36ZM17.22 12.4c-.58 0-1.06.41-1.36.86.274.085.541.162.807.239.424.122.843.243 1.273.391l.5-.45a.44.44 0 0 0-.04-.68 2.13 2.13 0 0 0-1.18-.36Z"/><path fill="#fff" d="M10.55 13.61c.16-.63.73-1.1 1.41-1.1.71 0 1.3.5 1.43 1.17.03.15-.09.28-.24.28h-2.32c-.19 0-.32-.17-.28-.35ZM18.45 13.61c-.16-.63-.73-1.1-1.41-1.1-.71 0-1.3.5-1.43 1.17-.03.15.09.28.24.28h2.32c.19 0 .32-.17.28-.35Z"/><path fill="#7D4533" d="M11.25 13.71c0-.51.42-.93.93-.93s.92.42.92.93c0 .09-.01.17-.03.25h-1.79c-.02-.08-.03-.16-.03-.25ZM17.76 13.71c0-.51-.42-.93-.93-.93-.52 0-.93.42-.92.93 0 .09.01.17.03.25h1.79c.02-.08.03-.16.03-.25Z"/><path fill="#000" d="M12.18 13.18c.29 0 .53.24.53.53 0 .09-.03.17-.06.25h-.94a.534.534 0 0 1 .47-.78ZM16.82 13.18c-.29 0-.53.24-.53.53 0 .09.03.17.06.25h.94a.534.534 0 0 0-.47-.78Z"/><path fill="#fff" d="M12.03 13.35a.17.17 0 1 1-.34 0 .17.17 0 0 1 .34 0ZM16.68 13.35a.17.17 0 1 1-.34 0 .17.17 0 0 1 .34 0Z"/><path fill="#212121" d="M17.91 11.903a.279.279 0 0 0 .333.006.28.28 0 0 0 .009-.449 2.824 2.824 0 0 0-1.976-.476.28.28 0 1 0 .068.555 2.325 2.325 0 0 1 1.567.364ZM10.638 11.91a.279.279 0 0 0 .332-.007 2.289 2.289 0 0 1 1.566-.364.28.28 0 0 0 .069-.555 2.86 2.86 0 0 0-1.976.476.28.28 0 0 0 .009.45ZM21.05 9.03c.95-.39 3.27-2.15 3.27-3.59 0-.36-.45-.52-.67-.23-.52.67-2.86 2.35-4.65 1.72"/><path fill="#D3D3D3" d="m20.2 5.61 4.84 1.4.839.69-.086.452-1.088.033L20.8 7.06c-.5-.15-.82-.7-.67-1.2l.07-.25Z"/><path fill="#9B9B9B" d="M24.29 7.72a.3.3 0 1 0 0-.6.3.3 0 0 0 0 .6Z"/><path fill="#F8312F" d="m25.047 7.005-.34 1.177.623.188c.01.26.08.53.22.78a1.84 1.84 0 0 0 3.22-1.78 1.843 1.843 0 0 0-2.5-.73c-.25.14-.45.32-.6.54l-.623-.175Zm1.703.505c.41-.23.93-.08 1.16.34.23.41.08.93-.34 1.16-.41.23-.93.08-1.16-.34a.857.857 0 0 1 .34-1.16ZM23.34 8.48l.185-.635 1.178.34-.183.645c.22.15.4.35.54.6.49.89.17 2.01-.72 2.5-.89.49-2.01.16-2.5-.73a1.84 1.84 0 0 1 .72-2.5c.25-.14.52-.21.78-.22Zm.87 1.41a.849.849 0 0 0-1.16-.34c-.42.23-.57.75-.34 1.16.23.42.75.57 1.16.34.42-.23.57-.75.34-1.16Z"/></svg>
